picto/emergency-instructions-framed.svg

<svg class="color-immutable" width="30" height="30" viewBox="0 0 30 30" fill="none" xmlns="http://www.w3.org/2000/svg"><path d="M30 0H0V30H30V0Z" fill="#237F52"/><path d="M25.5 3C26.325 3 27 3.675 27 4.5V25.5C27 26.325 26.325 27 25.5 27H4.5C3.675 27 3 26.325 3 25.5V4.5C3 3.675 3.675 3 4.5 3H25.5ZM25.5 2.625H4.5C3.46613 2.625 2.625 3.46613 2.625 4.5V25.5C2.625 26.5339 3.46613 27.375 4.5 27.375H25.5C26.5339 27.375 27.375 26.5339 27.375 25.5V4.5C27.375 3.46613 26.5339 2.625 25.5 2.625Z" fill="white"/><path d="M9.18334 8.70068L9.17554 6.08678L14.4521 6.09128L14.5133 7.61438L15.4697 8.6808L9.18334 8.70068Z" fill="white"/><path d="M11.8194 12.6298C9.23319 12.6298 9.18346 9.27652 9.18339 9.24277L9.18286 9.17182L14.537 9.15157L14.5347 9.2247C14.5335 9.25867 14.4032 12.6298 11.8194 12.6298Z" fill="white"/><path d="M15.087 23.9837H8.65039V13.16H13.9035C13.9085 13.1588 13.9155 13.1579 13.9227 13.1579H22.8432C23.4753 13.1579 23.9893 13.6732 23.9893 14.3063C23.9893 14.9391 23.4753 15.4538 22.8432 15.4538H15.087V23.9837Z" fill="white"/><path d="M8.11799 23.9837H5.99512V15.8451C5.99512 13.633 8.01359 13.2083 8.03399 13.2043L8.11859 13.1876L8.11799 23.9837Z" fill="white"/><path d="M17.4983 10.9721L17.1124 10.7351L17.1972 10.6112C17.4847 10.1906 17.6368 9.70245 17.6368 9.19942C17.6368 8.6859 17.4789 8.18933 17.1801 7.76318L17.0938 7.64018L17.4765 7.39875L17.5548 7.5102C17.9061 8.01105 18.0918 8.59515 18.0918 9.19942C18.0918 9.79163 17.9131 10.3658 17.575 10.8599L17.4983 10.9721Z" fill="white"/><path d="M18.4042 11.4526L18.0356 11.1907L18.1288 11.0726C18.5636 10.5217 18.7934 9.86662 18.7934 9.17797C18.7934 8.49532 18.5673 7.845 18.1397 7.2975L18.047 7.17892L18.4173 6.91882L18.501 7.026C18.99 7.65217 19.2485 8.3964 19.2485 9.17797C19.2485 9.96682 18.9856 10.7164 18.4886 11.3458L18.4042 11.4526Z" fill="white"/><path d="M19.3605 11.9151L19.0001 11.6422L19.0971 11.527C19.659 10.8601 19.9561 10.0559 19.9561 9.2013C19.9561 8.34555 19.6424 7.50937 19.0727 6.84682L18.9744 6.7326L19.3322 6.45615L19.4206 6.55905C20.0593 7.30177 20.4111 8.24017 20.4111 9.2013C20.4111 10.1609 20.0781 11.0635 19.448 11.8113L19.3605 11.9151Z" fill="white"/></svg>

<svg class="color-immutable" width="30" height="30" viewBox="0 0 30 30" fill="none" xmlns="http://www.w3.org/2000/svg"><g clip-path="url(#a)"><path d="M30 0H0v30h30V0Z" fill="#237F52"/><path d="M25.5 3c.825 0 1.5.675 1.5 1.5v21c0 .825-.675 1.5-1.5 1.5h-21c-.825 0-1.5-.675-1.5-1.5v-21C3 3.675 3.675 3 4.5 3h21Zm0-.375h-21A1.877 1.877 0 0 0 2.625 4.5v21c0 1.034.841 1.875 1.875 1.875h21a1.877 1.877 0 0 0 1.875-1.875v-21A1.877 1.877 0 0 0 25.5 2.625Z" fill="#fff"/><path d="m9.183 8.7-.007-2.613 5.276.004.061 1.523.957 1.067-6.287.02ZM11.82 12.63c-2.587 0-2.637-3.353-2.637-3.387v-.071l5.354-.02-.002.073c-.002.034-.132 3.405-2.716 3.405ZM15.087 23.984H8.65V13.16h5.253a.087.087 0 0 1 .02-.002h8.92a1.149 1.149 0 0 1 0 2.296h-7.756v8.53ZM8.118 23.984H5.995v-8.139c0-2.212 2.019-2.637 2.039-2.64l.085-.017-.001 10.796ZM17.498 10.972l-.386-.237.085-.124a2.493 2.493 0 0 0-.017-2.848l-.086-.123.383-.241.078.111a2.93 2.93 0 0 1 .02 3.35l-.077.112Z" fill="#fff"/><path d="m18.404 11.453-.368-.262.093-.118a3.033 3.033 0 0 0 .01-3.776l-.092-.118.37-.26.084.107a3.469 3.469 0 0 1-.012 4.32l-.085.107Z" fill="#fff"/><path d="m19.36 11.915-.36-.273.097-.115a3.571 3.571 0 0 0 .86-2.326c0-.855-.315-1.692-.884-2.354l-.099-.114.358-.277.089.103a4.06 4.06 0 0 1 .99 2.642c0 .96-.333 1.862-.963 2.61l-.088.104Z" fill="#fff"/></g><defs><clipPath id="a"><path fill="#fff" d="M0 0h30v30H0z"/></clipPath></defs></svg>
